X:1
T:O Songs of the Beautiful
T:O Songs of the Beautiful
T:Ira David Sankey
T:Frances Jane (Fanny) Crosby, 1890
T:Public Domain Courtesy of the Cyber Hymnal™
C:Ira David Sankey
Z:Public Domain
Z:Courtesy of the Cyber Hymnal™
%%score ( 1 2 ) ( 3 4 )
L:1/8
Q:1/4=115
M:3/4
K:G
V:1 treble 
V:2 treble 
V:3 bass 
V:4 bass 
V:1
 [B,D]2 | [DB]2 [CA]2 [B,G]2 | D3 [CE] [B,D]2 | [CA]2 [CE]2 [CF]2 | [B,G]4 [DB]2 | %5
w: 1.~O|songs of the|beau- ti- ful,|songs of the|blest, That|
w: 2.~O|songs of the|beau- ti- ful,|songs that we|hear When|
w: 3.~O|songs of the|beau- ti- ful,|songs that we|love, That|
w: 4.~O|songs of the|beau- ti- ful,|songs we may|sing In|
 [^DB]2 [DB]2 [DB]2 | [EB]3 [EA] [EG]2 | [EG]2 [EF]2 [EG]2 | [FA]4 D2 | [DB]2 [DA]2 [DB]2 | %10
w: breathe o’er the|spir- it the|calm- ness of|rest; We|list to their|
w: clouds o’er our|path- way are|hea- vy and|drear; They|tell of a|
w: come from the|home- land of|E- den a-|bove; We|rise with their|
w: yon- der bright|pal- ace where|dwell- eth our|king; Thro’|ag- es e-|
 [DG]2 [B,D]2 [DG]2 | [FA]2 G2 [FA]2 | [GB]4 [GB]2 | [Gc]2 [GB]2 [Ge]2 | [Gd]3 [GB] G2 | %15
w: mu- sic, we|e- cho the|praise Of|Christ, our Re-|deem- er, the|
w: ci- ty no|mor- tal hath|trod, A|ci- ty whose|build- er and|
w: ca- dence, we|join in their|strain, All|harps that were|si- lent are|
w: ter- nal their|chor- us shall|roll, “All|glo- ry to|Je- sus,” the|
 [DGB]2 [EG]2 [FA]2 | G6 ||"^Refrain" [FA]2 [FA]2 [GB]2 | [Ac]3 [GB] [FA]2 | [GB]2 [GB]2 [Fc]2 | %20
w: An- cient of|Days.||||
w: mak- er is|God.|Songs of the|beau- ti- ful,|Songs of the|
w: joy- ful a-|gain.||||
w: light of the|soul.||||
 [Gd]3 [Fc] [GB]2 | [Ge]2 [Gc]2 [Ge]2 | [Gd]3 [GB] G2 | [DGB]2 [EG]2 [FA]2 | G4 |] %25
w: |||||
w: beau- ti- ful,|Songs of the|beau- ti- ful,|Songs of the|blest.|
w: |||||
w: |||||
V:2
 x2 | x6 | D3 x3 | x6 | x6 | x6 | x6 | x6 | x4 D2 | x6 | x6 | x2 G2 x2 | x6 | x6 | x4 G2 | x6 | %16
 G6 || x6 | x6 | x6 | x6 | x6 | x4 G2 | x6 | G4 |] %25
V:3
 G,2 | G,2 G,2 G,2 | [F,A,]3 [F,A,] G,2 | [D,F,]2 [D,A,]2 [D,A,]2 | G,4 G,2 | %5
 [F,A,]2 [F,A,]2 [B,,A,]2 | [E,G,]3 [E,A,] [E,B,]2 | [A,,^C]2 [A,,C]2 [A,,C]2 | [D,D]4 [G,B,]2 | %9
 [G,D]2 [G,C]2 [G,D]2 | [G,B,]2 G,2 [B,,D]2 | [D,C]2 [E,B,]2 [D,C]2 | [G,D]4 [=F,D]2 | %13
 [E,C]2 [D,G,]2 [C,C]2 | [G,B,]3 [G,D] [B,,D]2 | [D,D]2 [D,B,]2 [D,C]2 | [G,,B,]6 || %17
 [D,D]2 [D,D]2 [D,D]2 | [D,D]3 [D,D] [D,D]2 | [G,D]2 [G,D]2 [G,D]2 | [B,D]3 [A,D] [G,D]2 | %21
 [C,C]2 [C,E]2 [C,C]2 | [G,B,]3 [G,D] [B,,D]2 | [D,D]2 [D,B,]2 [D,C]2 | [G,,B,]4 |] %25
V:4
 G,2 | G,2 G,2 G,2 | x4 G,2 | x6 | G,4 G,2 | x6 | x6 | x6 | x6 | x6 | x2 G,2 x2 | x6 | x6 | x6 | %14
 x6 | x6 | x6 || x6 | x6 | x6 | x6 | x6 | x6 | x6 | x4 |] %25

